icons/svg/seamark_big/landmark_cemetery.svg

<?xml version="1.0" encoding="UTF-8" standalone="no"?>
<svg
   xmlns:dc="http://purl.org/dc/elements/1.1/"
   xmlns:cc="http://creativecommons.org/ns#"
   xmlns:rdf="http://www.w3.org/1999/02/22-rdf-syntax-ns#"
   xmlns:svg="http://www.w3.org/2000/svg"
   xmlns="http://www.w3.org/2000/svg"
   xmlns:sodipodi="http://sodipodi.sourceforge.net/DTD/sodipodi-0.dtd"
   xmlns:inkscape="http://www.inkscape.org/namespaces/inkscape"
   width="1060"
   height="1060"
   id="svg2"
   version="1.1"
   inkscape:version="0.48.4 r9939"
   sodipodi:docname="landmark_windsock.svg">
  <defs
     id="defs13">
    <inkscape:path-effect
       effect="gears"
       id="path-effect3774"
       is_visible="true"
       teeth="6"
       phi="-1.2" />
    <inkscape:path-effect
       effect="bend_path"
       id="path-effect3772"
       is_visible="false"
       bendpath="m 95.790098,316.51174 c 144.429032,-206.42506 223.313032,-11.7428 339.548092,0"
       prop_scale="1.19"
       scale_y_rel="false"
       vertical="false"
       bendpath-nodetypes="cc" />
  </defs>
  <sodipodi:namedview
     pagecolor="#ffffff"
     bordercolor="#666666"
     borderopacity="1"
     objecttolerance="10"
     gridtolerance="10"
     guidetolerance="10"
     inkscape:pageopacity="0"
     inkscape:pageshadow="2"
     inkscape:window-width="1920"
     inkscape:window-height="1004"
     id="namedview11"
     showgrid="false"
     inkscape:zoom="0.40689655"
     inkscape:cx="463.81508"
     inkscape:cy="625.35281"
     inkscape:window-x="1680"
     inkscape:window-y="0"
     inkscape:window-maximized="1"
     inkscape:current-layer="svg2"
     inkscape:snap-object-midpoints="true"
     inkscape:snap-center="true" />
  <metadata
     id="metadata2975">image/svg+xmlen<rdf:RDF>
  <cc:Work
     rdf:about="">
    <dc:format>image/svg+xml</dc:format>
    <dc:type
       rdf:resource="http://purl.org/dc/dcmitype/StillImage" />
    <dc:title></dc:title>
  </cc:Work>
</rdf:RDF>
</metadata>
  <path
     style="font-size:medium;font-style:normal;font-variant:normal;font-weight:normal;font-stretch:normal;text-indent:0;text-align:start;text-decoration:none;line-height:normal;letter-spacing:normal;word-spacing:normal;text-transform:none;direction:ltr;block-progression:tb;writing-mode:lr-tb;text-anchor:start;baseline-shift:baseline;opacity:0.372;color:#000000;fill:#e4e4e4;fill-opacity:1;fill-rule:nonzero;stroke:#a35151;stroke-width:0;stroke-linecap:round;stroke-linejoin:miter;stroke-miterlimit:4;stroke-opacity:1;stroke-dashoffset:0;marker:none;visibility:visible;display:inline;overflow:visible;enable-background:accumulate;font-family:Sans;-inkscape-font-specification:Sans"
     d="m 508.5625,296.75 c -32.95794,0 -59.46838,15.95953 -75.3125,34.28125 -4.50155,5.20548 -8.07226,10.26392 -11.1875,15.03125 l -9.1875,0 c -39.02894,0 -66.09375,34.37966 -66.09375,68.96875 l 0,0.3125 c 0.0118,0.66739 0.0431,1.33443 0.0937,2 0.0147,0.37531 0.0355,0.75037 0.0625,1.125 l 0.90625,19.125 c -11.53742,1.87814 -22.13258,5.79804 -31.15625,11.09375 -10.91462,6.40545 -18.96851,13.94271 -25,20.5625 -27.75794,4.79165 -46.28125,30.74791 -46.28125,56.53125 l 0,0.21875 0,0.21875 c 0.008,0.55248 0.0284,1.10477 0.0625,1.65625 l 7.75,161.71875 -11.21875,0 c -9.0161,-0.001 -17.97721,3.7096 -24.35255,10.08495 -6.37535,6.37534 -10.08635,15.33645 -10.08495,24.35255 l 0,23.03125 c -0.001,9.01611 3.70961,17.97723 10.08496,24.35257 6.37536,6.37535 15.33648,10.08634 24.35259,10.08493 l 200.40625,0 c 14.82959,21.82562 39.8101,36.15625 67.90625,36.15625 28.10666,0 53.10007,-14.31592 67.9375,-36.15625 l 200.40625,0 c 9.0161,0.001 17.97721,-3.7096 24.35255,-10.08495 6.37535,-6.37534 10.08635,-15.33645 10.08495,-24.35255 l 0,-23.03125 c 0.001,-9.0161 -3.7096,-17.97721 -10.08495,-24.35255 -6.37534,-6.37535 -15.33645,-10.08635 -24.35255,-10.08495 l -16.625,0 7.71875,-161.1875 c 0.0697,-0.8003 0.11142,-1.60304 0.125,-2.40625 l 0,-0.21875 c 0,-26.69948 -19.83563,-53.66116 -49.25,-57.03125 -7.88464,-7.09006 -17.86699,-14.6177 -30.75,-20.84375 -6.30992,-3.04943 -13.24995,-5.65404 -20.71875,-7.59375 L 670.25,417.34375 c 0.0341,-0.55148 0.055,-1.10377 0.0625,-1.65625 l 0,-0.34375 0,-0.3125 c 0,-34.54918 -27.03353,-68.96875 -66.0625,-68.96875 l -9.1875,0 c -3.11524,-4.76733 -6.68595,-9.82577 -11.1875,-15.03125 C 568.03088,312.70953 541.52044,296.75 508.5625,296.75 z"
     id="path3880"
     inkscape:connector-curvature="0"
     sodipodi:nodetypes="sscssccccscscccccsccsccsccsccsccccscsccccsscss" />
  <path
     sodipodi:type="arc"
     style="color:#000000;fill:none;stroke:#000000;stroke-width:30.33652288;stroke-linecap:butt;stroke-linejoin:miter;stroke-miterlimit:4;stroke-opacity:1;stroke-dasharray:none;stroke-dashoffset:0;marker:none;visibility:visible;display:inline;overflow:visible;enable-background:accumulate"
     id="path2985"
     sodipodi:cx="510.26483"
     sodipodi:cy="737.74365"
     sodipodi:rx="69.120766"
     sodipodi:ry="69.120766"
     d="m 579.3856,737.74365 a 69.120766,69.120766 0 1 1 -138.24153,0 69.120766,69.120766 0 1 1 138.24153,0 z"
     transform="matrix(0.56558888,0,0,0.56558888,221.05031,318.17685)" />
  <path
     style="font-size:medium;font-style:normal;font-variant:normal;font-weight:normal;font-stretch:normal;text-indent:0;text-align:start;text-decoration:none;line-height:normal;letter-spacing:normal;word-spacing:normal;text-transform:none;direction:ltr;block-progression:tb;writing-mode:lr-tb;text-anchor:start;baseline-shift:baseline;color:#000000;fill:#000000;fill-opacity:1;stroke:none;stroke-width:30.00000191;marker:none;visibility:visible;display:inline;overflow:visible;enable-background:accumulate;font-family:Sans;-inkscape-font-specification:Sans"
     d="m 241.30549,723.91311 0,23.04878 224.28371,0 0,-23.04878 z m 312.38656,0 0,23.04878 224.28371,0 0,-23.04878 z"
     id="path3754"
     inkscape:connector-curvature="0"
     sodipodi:nodetypes="cccccccccc" />
  <rect
     style="fill:none"
     y="286.47861"
     x="-412.29581"
     width="487.45749"
     height="487.45749"
     id="rect3-5" />
  <rect
     style="fill:none"
     y="286.47861"
     x="-412.29581"
     width="487.45749"
     height="487.45749"
     id="rect3-8-8" />
  <path
     inkscape:connector-curvature="0"
     class="st0"
     d="m 606.6031,731.82742 15.18873,-316.90393 c 0,-11.44376 -8.35379,-21.12693 -18.22647,-21.12693 l -36.6587,0 c -11.57457,-18.48607 -21.81795,-49.29619 -59.03034,-49.29619 -37.2124,0 -47.45576,30.81012 -59.03034,49.29619 l -36.65869,0 c -9.87267,0 -18.22648,9.68317 -18.22648,21.12693 l 15.18873,316.90393 m 37.97184,-255.28372 121.50987,0 m -121.50987,61.6202 121.50987,0"
     id="path5"
     style="fill:none;stroke:#000000;stroke-width:26.83188629;stroke-miterlimit:4;stroke-opacity:1;stroke-dasharray:none"
     sodipodi:nodetypes="ccscscscccccc" />
  <path
     inkscape:connector-curvature="0"
     class="st0"
     d="m 715.72735,736.32541 10.09637,-210.65489 c 0,-7.60698 -5.553,-14.04366 -12.11564,-14.04366 l -12.11567,0 c -10.09636,-12.2882 -44.26598,-45.36389 -86.8199,-25.39567 m -5.05711,80.40001 80.771,0 m -80.771,40.96066 80.771,0"
     id="path5-2"
     style="fill:none;stroke:#000000;stroke-width:17.83590317;stroke-miterlimit:4;stroke-opacity:1;stroke-dasharray:none"
     sodipodi:nodetypes="ccscccccc" />
  <path
     inkscape:connector-curvature="0"
     class="st0"
     d="m 393.27887,487.46 c -49.6196,-23.96186 -70.88667,11.87866 -80.98304,24.16686 l -12.11566,0 c -6.56264,0 -12.11565,6.43668 -12.11565,14.04366 l 10.09638,210.65489 m 25.24094,-169.69421 80.771,0 m -80.771,40.96066 80.771,0"
     id="path5-2-6"
     style="fill:none;stroke:#000000;stroke-width:17.83590317;stroke-miterlimit:4;stroke-opacity:1;stroke-dasharray:none"
     sodipodi:nodetypes="ccscccccc" />
</svg>

<svg width="1060" height="1060" viewBox="0 0 1060 1060" fill="none" xmlns="http://www.w3.org/2000/svg">
<g clip-path="url(#clip0)">
<path opacity="0.372" d="M508.563 296.75C475.605 296.75 449.094 312.71 433.25 331.031C428.748 336.237 425.178 341.295 422.063 346.062H412.875C373.846 346.062 346.781 380.442 346.781 415.031V415.344C346.793 416.011 346.824 416.678 346.875 417.344C346.89 417.719 346.91 418.094 346.937 418.469L347.844 437.594C336.306 439.472 325.711 443.392 316.687 448.688C305.773 455.093 297.719 462.63 291.687 469.25C263.93 474.042 245.406 499.998 245.406 525.781V526V526.219C245.414 526.771 245.435 527.324 245.469 527.875L253.219 689.594H242C232.984 689.593 224.023 693.303 217.647 699.679C211.272 706.054 207.561 715.015 207.563 724.031V747.062C207.562 756.079 211.272 765.04 217.647 771.415C224.023 777.79 232.984 781.501 242 781.5H442.406C457.236 803.326 482.216 817.656 510.313 817.656C538.419 817.656 563.413 803.34 578.25 781.5H778.656C787.672 781.501 796.634 777.79 803.009 771.415C809.384 765.04 813.095 756.079 813.094 747.062V724.031C813.095 715.015 809.384 706.054 803.009 699.679C796.634 693.303 787.672 689.592 778.656 689.594H762.031L769.75 528.406C769.82 527.606 769.861 526.803 769.875 526V525.781C769.875 499.082 750.039 472.12 720.625 468.75C712.74 461.66 702.758 454.132 689.875 447.906C683.565 444.857 676.625 442.252 669.156 440.312L670.25 417.344C670.284 416.792 670.305 416.24 670.313 415.688V415.344V415.031C670.313 380.482 643.279 346.062 604.25 346.062H595.063C591.947 341.295 588.377 336.237 583.875 331.031C568.031 312.71 541.521 296.75 508.563 296.75Z" fill="#E4E4E4"/>
<path d="M548.745 735.437C548.745 740.571 547.735 745.655 545.771 750.399C543.806 755.143 540.927 759.453 537.297 763.084C533.666 766.715 529.356 769.596 524.613 771.561C519.869 773.526 514.785 774.537 509.651 774.537C504.516 774.537 499.432 773.526 494.688 771.561C489.945 769.596 485.635 766.715 482.005 763.084C478.374 759.453 475.495 755.143 473.531 750.399C471.566 745.655 470.556 740.571 470.557 735.437C470.556 730.302 471.566 725.218 473.531 720.474C475.495 715.73 478.374 711.42 482.005 707.789C485.635 704.158 489.945 701.277 494.688 699.312C499.432 697.347 504.516 696.336 509.651 696.336C514.785 696.336 519.869 697.347 524.613 699.312C529.356 701.277 533.666 704.158 537.297 707.789C540.927 711.42 543.806 715.73 545.771 720.474C547.735 725.218 548.745 730.302 548.745 735.437Z" stroke="black" stroke-width="17.158"/>
<path d="M241.306 723.913V746.962H465.589V723.913H241.306ZM553.692 723.913V746.962H777.976V723.913H553.692Z" fill="black"/>
<path d="M447.121 538.164H568.631M606.603 731.827L621.792 414.923C621.792 403.48 613.438 393.797 603.565 393.797H566.907C555.332 375.31 545.089 344.5 507.876 344.5C470.664 344.5 460.421 375.31 448.846 393.797H412.187C402.315 393.797 393.961 403.48 393.961 414.923L409.15 731.827H606.603ZM447.121 476.544H568.631H447.121Z" stroke="black" stroke-width="26.8319"/>
<path d="M609.715 607.592H690.486M715.727 736.325L725.824 525.671C725.824 518.064 720.271 511.627 713.708 511.627H701.592C691.496 499.339 657.326 466.263 614.772 486.231L715.727 736.325ZM609.715 566.631H690.486H609.715Z" stroke="black" stroke-width="17.8359"/>
<path d="M323.402 607.592H404.173M393.279 487.46C343.659 463.498 322.392 499.339 312.296 511.627H300.18C293.617 511.627 288.064 518.064 288.064 525.671L298.161 736.325L393.279 487.46ZM323.402 566.631H404.173H323.402Z" stroke="black" stroke-width="17.8359"/>
</g>
<defs>
<clipPath id="clip0">
<path d="M0 0H1060V1060H0V0Z" fill="white"/>
</clipPath>
</defs>
</svg>
